heart-off-outline.svg

<svg fill="currentColor" viewBox="0 0 24 24"><path d="M2.39 1.73 1.11 3l2.08 2.08C2.45 6 2 7.19 2 8.5c0 3.77 3.4 6.86 8.55 11.53L12 21.35l1.45-1.32c.87-.79 1.69-1.53 2.45-2.24L20 22l1.27-1.27m-9.17-2.18-.1.1-.11-.1C7.14 14.24 4 11.39 4 8.5c0-.76.22-1.44.61-2l9.89 9.87c-.76.69-1.55 1.41-2.4 2.18M8.3 5.1 6.33 3.13C6.7 3.05 7.1 3 7.5 3c1.74 0 3.41.81 4.5 2.08C13.09 3.81 14.76 3 16.5 3 19.58 3 22 5.41 22 8.5c0 2.34-1.31 4.42-3.53 6.77l-1.41-1.41C18.91 11.88 20 10.2 20 8.5c0-2-1.5-3.5-3.5-3.5-1.4 0-2.76.83-3.39 2h-2.22c-.51-.94-1.5-1.66-2.59-1.9"/></svg>

<svg  viewBox="0 0 24 24" fill="currentColor"><path  d="M2.39 1.73L1.11 3L3.19 5.08C2.45 6 2 7.19 2 8.5C2 12.27 5.4 15.36 10.55 20.03L12 21.35L13.45 20.03C14.32 19.24 15.14 18.5 15.9 17.79L20 22L21.27 20.73M12.1 18.55L12 18.65L11.89 18.55C7.14 14.24 4 11.39 4 8.5C4 7.74 4.22 7.06 4.61 6.5L14.5 16.37C13.74 17.06 12.95 17.78 12.1 18.55M8.3 5.1L6.33 3.13C6.7 3.05 7.1 3 7.5 3C9.24 3 10.91 3.81 12 5.08C13.09 3.81 14.76 3 16.5 3C19.58 3 22 5.41 22 8.5C22 10.84 20.69 12.92 18.47 15.27L17.06 13.86C18.91 11.88 20 10.2 20 8.5C20 6.5 18.5 5 16.5 5C15.1 5 13.74 5.83 13.11 7H10.89C10.38 6.06 9.39 5.34 8.3 5.1Z"/></svg>
